X:1
T:Best of All
T:Best of All
T:William James Kirkpatrick
T:Charles Walker Ray, 1889, alt.
T:Public Domain Courtesy of the Cyber Hymnal™
T:Public Domain Courtesy of the Cyber Hymnal™
C:William James Kirkpatrick
Z:Public Domain
Z:Courtesy of the Cyber Hymnal™
%%score ( 1 2 ) ( 3 4 )
L:1/8
Q:1/4=93
M:3/4
K:Db
V:1 treble 
V:2 treble 
V:3 bass 
V:4 bass 
V:1
"^Andante" [DF]>[EG] | [FA]7/2 [GB]/ [FA]>[DF] | [EG]2 [DF]2 D>[DE] | [DF]7/2 [DG]/ [DF]>D | %4
w: 1.~Je- sus|all my grief is|shar- ing, He my|man- sion is pre-|
w: 2.~Je- sus|loves and watch- es|o’er me, When a-|stray He will re-|
w: 3.~Je- sus|loves, and He will|guide me, All I|need He will pro-|
 [DF]2 [CE]2 [CE]>[DF] | [EG]7/2 [FA]/ [GB]>[Gc] | [Fe]2 [Fd]2 [Fc]>[FB] | %7
w: par- ing, When I’m|tremb- ling and des-|pair- ing, He will|
w: store me; An- gel|guards He sends be-|fore me, Lest in|
w: vide me, In His|bo- som He will|hide me, When the|
 [EA]7/2 [CE]/ [Ec]>[DB] | [CA]4 [EA]>[EA] | [Gc]7/2 [Gc]/ [GB]>[GA] | [FA]2 [Fd]2 [DF]>[DF] | %11
w: ev- er hear my|call; When the|storms are round me|sweep- ing, Tho’ in|
w: fa- tal snares I|fall; With His|friends He hath en-|rolled me, By His|
w: woes of life ap-|pall; He will|hear my feeb- lest|sigh- ing, Need- ful|
 [DB]7/2 [DF]/ [DB]>[Fd] | [Fd]2 [Ec]2 [DB]>[GA] | [Af]7/2 [Ae]/ [Ad]>A | [Ac]2 [GB]2 [=Ed]>[EB] | %15
w: help- less- ness I’m|sleep- ing, I am|safe in His own|keep- ing, This to|
w: might He will up-|hold me, In His|arms He will en-|fold me, This to|
w: grace to me sup-|ply- ing, He’ll be|with me when I’m|dy- ing, This to|
 [FA]7/2 [GB]/ [EG]>[CA] | [DF]4 A>A | [Fd]4 A>A | [Ge]4 A>A | [Af]7/2 [Ae]/ [Ad]>A | %20
w: me is best of|all: Best of|all, best of|all, I am|safe in His own|
w: me is best of|all: Best of|all, best of|all, In His|arms He will en-|
w: me is best of|all: Best of|all, best of|all, He’ll be|with me when I’m|
 [Ac]2 !fermata![GB]2 [=Ed]>[EB] |"^ad lib" [FA]7/2 [Fd]/ !fermata![Ge]>[Gc] | [Fd]4 |] %23
w: keep- ing, This to|me is best of|all.|
w: fold me, This to|me is best of|all.|
w: dy- ing, This to|me is best of|all.|
V:2
 x2 | x6 | x4 D3/2 x/ | x11/2 D/ | x6 | x6 | x6 | x6 | x6 | x6 | x6 | x6 | x6 | x11/2 A/ | x6 | %15
 x6 | x4 A>A | x4 A>A | x4 A>A | x11/2 A/ | x6 | x6 | x4 |] %23
V:3
 [D,A,]>[D,A,] | [D,D]7/2 [D,D]/ [D,D]>[D,A,] | [D,A,]2 [D,A,]2 [D,F,]>[D,G,] | %3
 [D,A,]7/2 [D,A,]/ [D,A,]>[D,F,] | [A,,A,]2 [A,,A,]2 [A,,A,]>[A,,A,] | %5
 [A,,A,]7/2 [A,,A,]/ [A,,A,]>[A,,A,] | [D,A,]2 [D,A,]2 [D,A,]>[D,D] | %7
 [E,C]7/2 [E,A,]/ [E,A,]>[E,=G,] | [A,,A,]4 [A,C]>[A,C] | [A,E]7/2 [A,E]/ [A,D]>[A,C] | %10
 [D,D]2 [D,A,]2 [D,F,]>[D,F,] | [B,,F,]7/2 [B,,F,]/ [B,,F,]>[B,,B,] | %12
 [F,B,]2 [F,=A,]2 [G,B,]>[_A,C] | [D,D]7/2 [E,C]/ [F,D]>[F,D] | [G,D]2 [G,D]2 [=G,B,]>[G,D] | %15
 [A,D]7/2 [A,D]/ [A,,C]>[A,,A,] | [D,A,]4 A,>A, | [D,A,]4 A,>A, | [A,C]4 A,>A, | %19
 [D,D]7/2 [E,C]/ [F,D]>[F,D] | [G,D]2 !fermata![G,D]2 [=G,B,]>[G,D] | %21
 [A,D]7/2 [A,D]/ !fermata![A,C]>A, | [D,A,]4 |] %23
V:4
 x2 | x6 | x6 | x6 | x6 | x6 | x6 | x6 | x6 | x6 | x6 | x6 | x6 | x6 | x6 | x6 | x4 A,>A, | %17
 x4 A,>A, | x4 A,>A, | x6 | x6 | x11/2 A,/ | x4 |] %23

